Catalina-dark/actions/22/im-gadugadu.svg

<svg xmlns="http://www.w3.org/2000/svg" viewBox="0 0 22 22">
  <defs id="defs3051">
    <style type="text/css" id="current-color-scheme">
      .ColorScheme-Text {
        color:#f2f2f2
      }
      </style>
  </defs>
 <path 
     style="fill:currentColor;fill-opacity:1;stroke:none"      
	 class="ColorScheme-Text"
        d="M 11 3 A 8 8 0 0 0 3 11 A 8 8 0 0 0 11 19 A 8 8 0 0 0 19 11 A 8 8 0 0 0 11 3 z M 11 5 C 11.075988 5 11.133614 5.026459 11.173828 5.0800781 L 12.380859 6.7421875 L 14.335938 6.1113281 C 14.398274 6.0845185 14.464308 6.0940167 14.53125 6.1386719 C 14.589392 6.1833271 14.617187 6.2410352 14.617188 6.3125 L 14.617188 8.3632812 L 16.574219 9.0058594 C 16.645684 9.0281459 16.691056 9.0735188 16.708984 9.140625 C 16.731271 9.2120898 16.721773 9.2778775 16.681641 9.3359375 L 15.476562 10.996094 L 16.681641 12.658203 C 16.721773 12.71174 16.731435 12.77761 16.708984 12.853516 C 16.691056 12.920457 16.645684 12.963959 16.574219 12.986328 L 14.617188 13.628906 L 14.617188 15.679688 C 14.617188 15.751069 14.589392 15.80886 14.53125 15.853516 C 14.464308 15.898171 14.398356 15.907669 14.335938 15.880859 L 12.380859 15.251953 L 11.173828 16.912109 C 11.129173 16.970087 11.071465 17 11 17 C 10.928535 17 10.870827 16.970087 10.826172 16.912109 L 9.6191406 15.251953 L 7.6640625 15.880859 C 7.6015616 15.907669 7.5357739 15.898171 7.46875 15.853516 C 7.41069 15.80886 7.3808594 15.751069 7.3808594 15.679688 L 7.3808594 13.628906 L 5.4257812 12.986328 C 5.3543166 12.963877 5.3088613 12.920375 5.2910156 12.853516 C 5.2687291 12.777528 5.278145 12.71174 5.3183594 12.658203 L 6.5234375 10.996094 L 5.3183594 9.3359375 C 5.278145 9.2778775 5.2687291 9.2120898 5.2910156 9.140625 C 5.3088613 9.0736011 5.3543165 9.0282281 5.4257812 9.0058594 L 7.3808594 8.3632812 L 7.3808594 6.3125 C 7.3808594 6.2410352 7.41069 6.1833271 7.46875 6.1386719 C 7.5357739 6.0940167 7.6015616 6.0845185 7.6640625 6.1113281 L 9.6191406 6.7421875 L 10.826172 5.0800781 C 10.866386 5.0265412 10.924094 5 11 5 z M 11 7.1367188 C 10.477378 7.1367188 9.9776175 7.238114 9.5019531 7.4414062 C 9.0262887 7.6446163 8.6157531 7.9194854 8.2695312 8.265625 C 7.9233917 8.6118469 7.6485225 9.0243356 7.4453125 9.5 C 7.2421025 9.9757467 7.140625 10.473471 7.140625 10.996094 C 7.140625 11.518798 7.2421025 12.018394 7.4453125 12.494141 C 7.6486048 12.969805 7.9233917 13.380342 8.2695312 13.726562 C 8.615671 14.072703 9.0262887 14.347489 9.5019531 14.550781 C 9.9776998 14.753991 10.477378 14.855469 11 14.855469 C 11.522622 14.855469 12.022465 14.753991 12.498047 14.550781 C 12.973794 14.347571 13.384247 14.072703 13.730469 13.726562 C 14.076608 13.380342 14.351394 12.969805 14.554688 12.494141 C 14.757815 12.018394 14.859375 11.518716 14.859375 10.996094 C 14.859375 10.473554 14.757897 9.9757467 14.554688 9.5 C 14.351394 9.0243356 14.076608 8.6118469 13.730469 8.265625 C 13.384247 7.9194854 12.973794 7.6446164 12.498047 7.4414062 C 12.022465 7.2381141 11.52254 7.1367188 11 7.1367188 z M 9.5371094 8.9140625 C 9.9054046 8.9140625 10.205078 9.2116753 10.205078 9.5800781 C 10.205078 9.9486961 9.9054046 10.248047 9.5371094 10.248047 C 9.1687066 10.247939 8.8710938 9.9486961 8.8710938 9.5800781 C 8.8710938 9.2117829 9.1687066 8.9140625 9.5371094 8.9140625 z M 12.5625 8.9140625 C 12.930795 8.9140625 13.230469 9.2116753 13.230469 9.5800781 C 13.230469 9.9486961 12.930903 10.248047 12.5625 10.248047 C 12.194312 10.247939 11.896484 9.9486961 11.896484 9.5800781 C 11.896484 9.2117829 12.194205 8.9140625 12.5625 8.9140625 z M 8.8222656 11.859375 C 8.9487965 11.859375 9.069556 11.932369 9.1210938 12.056641 C 9.419883 12.775908 10.159308 13.242188 11.005859 13.242188 C 11.833259 13.242188 12.569589 12.776446 12.880859 12.056641 C 12.951656 11.89299 13.141252 11.81766 13.304688 11.888672 C 13.468553 11.959361 13.543453 12.148849 13.472656 12.3125 C 13.059171 13.26869 12.091055 13.886719 11.005859 13.886719 C 9.8975311 13.886719 8.9245654 13.265719 8.5253906 12.304688 C 8.4569607 12.140067 8.5344918 11.951243 8.6992188 11.882812 C 8.7396741 11.866136 8.7809494 11.859375 8.8222656 11.859375 z "
     />
</svg>

<svg viewBox="0 0 22 22" xmlns="http://www.w3.org/2000/svg">
<defs>
<style id="current-color-scheme" type="text/css">.ColorScheme-Text {
        color:#dedede
      }</style>
</defs>
<path class="ColorScheme-Text" d="m11 3a8 8 0 0 0-8 8 8 8 0 0 0 8 8 8 8 0 0 0 8-8 8 8 0 0 0-8-8zm0 2c0.075988 0 0.13361 0.026459 0.17383 0.080078l1.207 1.6621 1.9551-0.63086c0.062336-0.02681 0.12837-0.017311 0.19531 0.027344 0.058142 0.044655 0.085937 0.10236 0.085938 0.17383v2.0508l1.957 0.64258c0.071465 0.022286 0.11684 0.067659 0.13476 0.13477 0.022287 0.071465 0.012789 0.13725-0.027343 0.19531l-1.2051 1.6602 1.2051 1.6621c0.040132 0.053537 0.049794 0.11941 0.027343 0.19531-0.017928 0.066941-0.0633 0.11044-0.13476 0.13281l-1.957 0.64258v2.0508c0 0.071381-0.027796 0.12917-0.085938 0.17383-0.066942 0.044655-0.13289 0.054153-0.19531 0.027343l-1.9551-0.62891-1.207 1.6602c-0.044655 0.057978-0.10236 0.087891-0.17383 0.087891s-0.12917-0.029913-0.17383-0.087891l-1.207-1.6602-1.9551 0.62891c-0.062501 0.02681-0.12829 0.017312-0.19531-0.027343-0.05806-0.044656-0.087891-0.10245-0.087891-0.17383v-2.0508l-1.9551-0.64258c-0.071465-0.022451-0.11692-0.065953-0.13477-0.13281-0.022286-0.075988-0.012871-0.14178 0.027344-0.19531l1.2051-1.6621-1.2051-1.6602c-0.040214-0.05806-0.04963-0.12385-0.027344-0.19531 0.017846-0.067024 0.063301-0.1124 0.13477-0.13477l1.9551-0.64258v-2.0508c0-0.071465 0.029831-0.12917 0.087891-0.17383 0.067024-0.044655 0.13281-0.054153 0.19531-0.027344l1.9551 0.63086 1.207-1.6621c0.040214-0.053537 0.097922-0.080078 0.17383-0.080078zm0 2.1367c-0.52262 0-1.0224 0.1014-1.498 0.30469-0.47566 0.20321-0.8862 0.47808-1.2324 0.82422-0.34614 0.34622-0.62101 0.75871-0.82422 1.2344-0.20321 0.47575-0.30469 0.97347-0.30469 1.4961 0 0.5227 0.10148 1.0223 0.30469 1.498 0.20329 0.47566 0.47808 0.8862 0.82422 1.2324 0.34614 0.34614 0.75676 0.62093 1.2324 0.82422 0.47575 0.20321 0.97542 0.30469 1.498 0.30469s1.0225-0.10148 1.498-0.30469c0.47575-0.20321 0.8862-0.47808 1.2324-0.82422 0.34614-0.34622 0.62092-0.75676 0.82422-1.2324 0.20313-0.47575 0.30469-0.97542 0.30469-1.498 0-0.52254-0.10148-1.0203-0.30469-1.4961-0.20329-0.47566-0.47808-0.88815-0.82422-1.2344-0.34622-0.34614-0.75668-0.62101-1.2324-0.82422-0.47558-0.20329-0.97551-0.30469-1.498-0.30469zm-1.4629 1.7773c0.3683 0 0.66797 0.29761 0.66797 0.66602 0 0.36862-0.29967 0.66797-0.66797 0.66797-0.3684-1.08e-4 -0.66602-0.29935-0.66602-0.66797 0-0.3683 0.29761-0.66602 0.66602-0.66602zm3.0254 0c0.3683 0 0.66797 0.29761 0.66797 0.66602 0 0.36862-0.29957 0.66797-0.66797 0.66797-0.36819-1.08e-4 -0.66602-0.29935-0.66602-0.66797 0-0.3683 0.29772-0.66602 0.66602-0.66602zm-3.7402 2.9453c0.12653 0 0.24729 0.072994 0.29883 0.19727 0.29879 0.71927 1.0382 1.1855 1.8848 1.1855 0.8274 0 1.5637-0.46574 1.875-1.1855 0.070797-0.16365 0.26039-0.23898 0.42383-0.16797 0.16386 0.070689 0.23876 0.26018 0.16797 0.42383-0.41348 0.95619-1.3816 1.5742-2.4668 1.5742-1.1083 0-2.0813-0.621-2.4805-1.582-0.06843-0.16462 0.0091012-0.35344 0.17383-0.42188 0.040455-0.016676 0.081731-0.023437 0.12305-0.023437z" fill="currentColor"/>
</svg>
